src/assets/img/Fb.svg

<svg width="9" height="18" viewBox="0 0 9 18" fill="none" xmlns="http://www.w3.org/2000/svg">
<path d="M5.57288 6.42188V4.35938C5.57288 3.79013 6.03488 3.32812 6.60413 3.32812H7.63538V0.75H5.57288C3.86409 0.75 2.47913 2.13497 2.47913 3.84375V6.42188H0.416626V9H2.47913V17.25H5.57288V9H7.63538L8.66663 6.42188H5.57288Z" fill="#202020"/>
</svg>

<svg xmlns="http://www.w3.org/2000/svg" fill="none" viewBox="0 0 9 18"><path fill="#202020" d="M5.573 6.422V4.359c0-.569.462-1.03 1.031-1.03h1.031V.75H5.573a3.094 3.094 0 0 0-3.094 3.094v2.578H.417V9h2.062v8.25h3.094V9h2.062l1.032-2.578H5.573z"/></svg>
